X:1
T:O salutaris hostia
T:William Byrd (c.1540-1623)
T:O salutaris hostia
T:© Choral Public Domain Library 2010
T:© Choral Public Domain Library 2010
T:© Choral Public Domain Library 2010
T:© Choral Public Domain Library 2010
C:William Byrd (c.1540-1623)
Z:© Choral Public Domain Library 2010
%%score [ 1 2 3 4 ]
L:1/8
M:4/4
K:C
V:1 treble nm="Alto" snm="S."
V:2 treble-8 transpose=-12 nm="Tenor" snm="T."
V:3 treble-8 transpose=-12 nm="Tenor" snm="T."
V:4 bass nm="Bass" snm="B."
V:1
 [Cd]2 |[M:4/2] z16 | z8 G8 | A8 B4 c4- | c4 G4 B6 B2 | A8 z8 | z16 | z8 G8 | A8 B4 d4- | %9
w: ||O|sa- lu- tar-|* ris ho- sti-|a,||O|sa- lu- ta-|
 d4 ^c4 d6 !courtesy!=c2 | B4 c8 B2 A2 | B2 E2 G8 ^F4 | G4 G4 A6 G2 | ^F4 D4 G4 E4 | D16 | %15
w: * ris ho- sti-|a, ho- * *|* * * sti-|a, O sa- lu-|ta- ris ho- sti-|a,|
 z4 A4 d4 B4 | c8 B4 A4- | A4 ^G4 A8 | B6 B2 A8 | z4 A4 d4 B4 | c8 B8 | A12 A4 | %22
w: quæ cæ- li|pan- dis o-|* sti- um,|o- sti- um,|quæ cæ- li|pan- dis|o- sti-|
 A4 z2 A4 G2 ^F2 E2 | ^F2 E2 D2 ^C2 D8 | d12 d4 | d8 B4 G4 | A6 B2 c2 B2 A2 G2 | %27
w: um, o- * * *|* * * sti- um:|bel- la|pre- munt ho-|sti- * * * * *|
 ^F2 G2 A2 G2 F4 E4 | D8 z4 E4 | D2 EF G3 F E8 | z8 d8- | d4 d4 d8 | B4 G4 A6 B2 | %33
w: * * * * * li-|a, ho-|sti- * * * li- a,|bel-|* la pre-|munt ho- sti- *|
 c2 B2 A2 G2 ^F2 G2 A2 G2 | F2 E2 F2 D2 E6 E2 | D4 A4 c8- | c4 B4 A8- | A16 | z4 G4 A4 c4 | %39
w: |* * * * * li-|a, ho- sti-|* li- a,|_|da ro- bur,|
 B4 G2 d4 cB A4 | G8 z8 | A4 d8 B4 | A8 z4 G4 | A4 c4 B4 G2 d2- | d2 cB A2 B2 c2 B2 A2 G2 | %45
w: fer au- xi- li- * *|um,|au- xi- li-|um, da|ro- bur, fer au- xi-||
 ^F2 G2 A4 G8 | z4 D4 E4 G4 | ^F4 D2 A4 G2 F3 E | ^F2 G2 A8 z4 | A4 d6 cB A4 | !fermata!B16 |] %51
w: * * li- um,|da ro- bur,|fer au- xi- * * *|* li- um,|au- xi- li- * *|um.|
V:2
 [Ea]2 |[M:4/2] d8 e8 | ^f4 g8 e4 | ^f6 f2 g4 c2 d2 | e2 d2 e2 ^f2 g2 e2 g4- | g4 ^f4 g8 | %6
w: |O sa-|lu- ta- ris|ho- sti- a, ho- *||* sti- a,|
 z4 d8 e2 f2 | g2 f2 e6 e2 d4 | z8 d8 | e8 ^f8 | g4 e4 d6 ^c2 | d2 G2 B2 ^c2 d4 d4- | d4 B4 e8 | %13
w: ho- * *|* * * sti- a,|O|sa- lu-|ta- ris ho- *|* * * sti- a, sa-|* lu- ta-|
 d4 d8 c4 | B6 B2 A2 B4 AG | A6 A2 B4 z2 B2 | e6 c2 d6 A2 | B6 B2 A4 z2 A2 | e4 B4 c8 | B4 A8 ^G4 | %20
w: ris ho- *|* sti- a, ho- * *|* sti- a, quæ|cæ- li pan- dis|o- sti- um, quæ|cæ- li pan-|dis o- sti-|
 A4 e4 g4 d4 | f8 e4 d4- | d4 ^c4 d4 d4- | d2 e2 ^f2 e2 d2 e2 f3 e | ^fde=f g2 fe d8 | %25
w: um, quæ cæ- li|pan- dis o-|* sti- um, pan-|* dis _ _ o- * * *|* * * * * sti- * um:|
 z4 d6 d2 e4- | e2 de f2 d2 e4 ^c4 | d8 z4 A4- | A2 Bc d2 c2 B2 A2 G2 A2 | B2 c4 B2 c4 B4 | %30
w: bel- la pre-|* munt _ _ ho- sti- li-|a, ho-|* sti- * * * * * * *|* * li- a, ho-|
 c2 B2 A2 G2 ^F4 G4 | A2 G2 ^F2 E2 F2 G4 F2 | G2 d4 e2 f4 f4 | e8 a8- | a4 a4 a8 | ^f4 d4 e6 =f2 | %36
w: sti- * * * * *|* * * * * * li-|a, ho- * sti- li-|a, bel-|* la pre-|munt ho- sti- *|
 gfed ed^cB c2 A2 d4- | d4 ^c4 d6 A2 | c2 B3 c d4 cB A4 | d8 z8 | z4 d4 e4 g4 | %41
w: |* li- a, ho-|sti- * * * li- * *|a,|da ro- bur,|
 ^f4 d2 a4 g=f edcB | cBAG A4 G2 d2 Bcde | ^fd g4 f2 g4 z2 G2 | d4 f4 e8 | d8 e6 e2 | d8 z4 G4 | %47
w: fer au- xi- * * * * * *|* * * * li- um, au- xi- * * *|* * * li- um, da|ro- bur, fer|au- xi- li-|um, da|
 A6 c2 B2 G2 d3 c | B4 ^c4 d4 d4 | e2 ^f2 g8 f4 | !fermata!g16 |] %51
w: ro- bur fer au- xi- *|* li- um, au-|xi- * * li-|um.|
V:3
 [Cf]2 |[M:4/2] z16 | z16 | z16 | z16 | z8 G8 | A8 B4 c4- | c4 G4 B6 B2 | A4 d8 B4 | A6 c2 B4 A4 | %10
w: |||||O|sa- lu- ta-|* ris ho- sti-|a, sa- lu-|ta- ris ho- sti-|
 G8 z8 | G8 A8 | B4 d8 ^c4 | d6 c2 B4 A4- | A2 ^F2 G2 E2 F2 D2 G4- | G4 ^F4 G4 G4 | C4 G4 z4 A4 | %17
w: a,|O sa-|lu- ta- ris|ho- sti- a, ho-||* sti- a, ho-|sti- a, quæ|
 e4 B4 c8 | B4 e8 e4 | e8 z8 | c6 B2 G2 A2 B2 c2 | d2 c2 A2 B2 c2 A2 f4 | e4 A8 A4 | %23
w: cæ- li pan-|dis o- sti-|um,|pan- dis o- * * *|* * * * * * sti-|um: bel- la|
 A8 ^F4 D2 d2- | d2 c2 B2 A2 B2 A2 G2 ^F2 | G2 A2 B2 A2 G8 | z8 A8- | A4 A4 A8 | ^F4 D4 E6 =F2 | %29
w: pre- munt ho- sti-||* * * li- a,|bel-|* la pre-|munt ho- sti- *|
 G2 F2 E2 D2 C2 D2 E2 D2 | C2 G2 c8 B4 | A8 z4 d4- | d4 d4 d8 | A4 ^c4 d2 e2 f2 e2 | d2 ^c2 d8 c4 | %35
w: * * * * * * * li-|a, ho- sti- li-|a, bel-|* la pre-|munt ho- sti- * * *|* * * li-|
 d8 z4 E4- | E4 G8 F4 | E8 z4 ^F4 | G4 B4 A8 | z4 G4 A4 c4 | B4 G2 d4 ^cd B2 c2 | d6 c2 B6 AG | %42
w: a, ho-|* sti- li-|a, da|ro- bur, fer,|da ro- bur,|fer au- xi- * * * li-|um, au- xi- * *|
 ^F2 G4 F2 G6 =FE | D4 z2 A2 d4 B4 | G4 d4 c6 B2 | A4 z2 D2 G4 c4 | B4 G2 d4 ^cd B2 c2 | %47
w: * * li- um _ _|_ da ro- bur,|fer au- xi- li-|um, da ro- bur,|fer au- xi- * * * li-|
 d8 z4 A2 d2- | d2 cB A2 G2 ^F2 G2 A2 B2 | c2 d2 B4 A6 A2 | !fermata!G16 |] %51
w: um, au- xi-||* * * * li-|um.|
V:4
 [G,,D]2 |[M:4/2] z16 | z16 | z16 | z16 | D,8 E,8 | ^F,8 G,4 C,4 | E,2 D,2 E,2 ^F,2 G,2 E,2 G,4- | %8
w: |||||O sa-|lu- ta- ris|ho- * * * * * *|
 G,4 ^F,4 G,8 | z8 D,8 | E,8 ^F,4 G,4- | G,4 E,4 D,6 C,2 | B,,8 A,,8 | B,,12 C,4 | D,4 G,,4 D,8- | %15
w: * sti- a,|O|sa- lu- ta-|* ris ho- sti-|a, O|sa- lu-|ta- ris ho-|
 D,4 D,4 G,,8 | z4 C,4 G,4 F,4 | E,8 A,,4 A,4- | A,4 ^G,4 A,4 A,,4 | E,4 C,4 B,,8 | %20
w: * sti- a,|quæ cæ- li|pan- dis o-|* sti- um, quæ|cæ- li pan-|
 A,,4 C,2 D,2 E,2 F,2 G,2 F,2 | D,2 E,2 F,2 G,2 A,4 D,4 | A,,8 D,8- | D,4 D,4 D,8 | %24
w: dis o- * * * * *|* * * * * sti-|um: bel-|* la pre-|
 B,,4 G,,4 G,6 A,2 | B,2 A,2 G,2 ^F,2 G,2 =F,2 E,2 D,2 | C,4 D,4 A,,4 A,,4 | D,12 ^C,4 | D,8 G,8- | %29
w: munt ho- sti- *||* li- a, ho-|sti- li-|a, bel-|
 G,4 G,4 G,8 | E,4 C,4 D,6 E,2 | F,2 E,2 D,2 C,2 D,2 C,2 B,,2 A,,2 | G,,4 G,,4 D,8 | z16 | %34
w: * la pre-|munt ho- sti- *||* li- a,||
 z4 D,4 A,6 A,2 | D,8 A,,4 C,4- | C,4 G,,4 A,,8- | A,,8 z4 D,4 | E,4 G,4 ^F,8 | %39
w: ho- sti- li-|a, ho- sti-|* li- a,|_ da|ro- bur, fer|
 G,2 B,4 A,G, ^F,2 G,4 F,2 | G,4 G,4 E,6 E,2 | D,8 z4 G,4 | A,4 C4 B,4 G,2 D2- | D2 CB, A,4 G,8 | %44
w: au- xi- * * * * li-|um, au- xi- li-|um, da|ro- bur, fer au- xi-|* * * li- um,|
 z8 z4 C,4 | D,4 F,4 E,4 C,4 | G,6 F,2 E,4 E,4 | D,16 | z4 A,,4 D,6 C,B,, | A,,4 G,,4 D,6 D,2 | %50
w: da|ro- bur, fer au-|xi- * * li-|um,|au- xi- * *|* * * li-|
 !fermata!G,,16 |] %51
w: um.|

